img/sm/bitcoin.svg

<?xml version="1.0" encoding="UTF-8"?>
<svg width="200px" height="200px" viewBox="0 0 200 200" version="1.1" xmlns="http://www.w3.org/2000/svg" xmlns:xlink="http://www.w3.org/1999/xlink">
    <title>形状</title>
    <g id="页面-1" stroke="none" stroke-width="1" fill="none" fill-rule="evenodd">
        <path d="M196.981798,124.2012 C183.632009,177.783685 129.374535,210.366503 75.8003832,197.000047 C22.2512311,183.750257 -10.3649191,129.376118 3.01820215,75.8769652 C16.3513244,22.2528143 70.625465,-10.3550027 124.166284,2.98645273 C177.748769,16.361241 210.348253,70.610382 196.981798,124.217867 L196.981798,124.2012 Z M144.065969,85.7601422 C146.065937,72.510352 135.949431,65.3437988 122.066317,60.510542 L126.566246,42.5691594 L115.608086,39.8192029 L111.233155,57.3772582 C108.358201,56.6522697 105.358248,55.9856135 102.366629,55.2939578 L106.749893,37.5692385 L95.7500674,34.819282 L91.2501385,52.8606631 C88.8751762,52.3023387 86.5418797,51.7606805 84.2502494,51.1940229 L69.1254889,47.4440822 L66.2088684,59.1688965 C66.2088684,59.1688965 74.3337396,61.0438668 74.1670758,61.135532 C78.6253385,62.2688475 79.4169926,65.185468 79.2919945,67.5187643 L66.9838561,116.851317 C66.358866,118.234628 64.9838877,120.234596 61.8672705,119.467942 C61.9922686,119.634606 53.8673973,117.467973 53.8673971,117.467973 L48.3674842,130.051108 L62.6172586,133.601051 L70.3671359,135.617686 L65.867207,153.867397 L76.867033,156.592354 L81.3669617,138.509307 C84.3669143,139.342627 87.2418688,140.092615 90.1168232,140.784271 L85.8668904,158.733987 L96.8667162,161.483943 L101.408311,143.234232 C120.074682,146.792509 134.157792,145.375865 140.074365,128.451133 C144.82429,114.809682 139.824369,106.951473 129.932859,101.818221 C137.049413,100.209913 142.432662,95.4849883 143.932638,85.7351426 L144.01597,85.7351426 L144.065969,85.7601422 Z M118.983033,120.926252 C115.61642,134.592702 92.675116,127.176153 85.2335672,125.342849 L91.2334721,101.176565 C98.7000205,103.093201 122.54131,106.75981 118.983033,120.926252 Z M122.399645,85.5934781 C119.316361,98.0099482 100.216663,91.7183811 94.0250945,90.1767389 L99.4750084,68.1770871 C105.67491,69.6770633 125.616261,72.5436846 122.391312,85.5434789 L122.391312,85.5934781 L122.399645,85.5934781 Z" id="形状" fill="#DCDCDC" fill-rule="nonzero"></path>
    </g>
</svg>

<svg width="200" height="200" xmlns="http://www.w3.org/2000/svg"><path d="M196.982 124.201C183.632 177.784 129.375 210.367 75.8 197 22.251 183.75-10.365 129.376 3.018 75.877c13.333-53.624 67.607-86.232 121.148-72.89 53.583 13.374 86.182 67.623 72.816 121.23v-.016zm-52.916-38.44c2-13.25-8.117-20.417-22-25.25l4.5-17.942-10.958-2.75-4.375 17.558c-2.875-.725-5.875-1.391-8.866-2.083l4.383-17.725-11-2.75-4.5 18.042c-2.375-.559-4.708-1.1-7-1.667l-15.125-3.75L66.21 59.17s8.125 1.875 7.958 1.967c4.458 1.133 5.25 4.05 5.125 6.383L66.984 116.85c-.625 1.384-2 3.384-5.117 2.617.125.167-8-2-8-2l-5.5 12.583 14.25 3.55 7.75 2.017-4.5 18.25 11 2.724 4.5-18.083c3 .834 5.875 1.584 8.75 2.275l-4.25 17.95 11 2.75 4.541-18.25c18.667 3.559 32.75 2.142 38.666-14.783 4.75-13.641-.25-21.5-10.141-26.633 7.116-1.608 12.5-6.333 14-16.083h.083l.05.025zm-25.083 35.165c-3.367 13.667-26.308 6.25-33.75 4.417l6-24.166c7.467 1.916 31.308 5.583 27.75 19.75zm3.417-35.333c-3.084 12.417-22.183 6.125-28.375 4.584l5.45-22c6.2 1.5 26.141 4.367 22.916 17.366v.05h.009z" fill="#DCDCDC" fill-rule="nonzero"/></svg>
